packages/icons/src/move.svg

<svg width="15" height="15" viewBox="0 0 15 15" fill="none" xmlns="http://www.w3.org/2000/svg">
  <path
    fill-rule="evenodd"
    clip-rule="evenodd"
    d="M7.81819 0.93179C7.64245 0.756054 7.35753 0.756054 7.18179 0.93179L5.43179 2.68179C5.25605 2.85753 5.25605 3.14245 5.43179 3.31819C5.60753 3.49392 5.89245 3.49392 6.06819 3.31819L6.99999 2.38638V5.49999C6.99999 5.77613 7.22385 5.99999 7.49999 5.99999C7.77613 5.99999 7.99999 5.77613 7.99999 5.49999V2.38638L8.93179 3.31819C9.10753 3.49392 9.39245 3.49392 9.56819 3.31819C9.74392 3.14245 9.74392 2.85753 9.56819 2.68179L7.81819 0.93179ZM7.99999 9.49999C7.99999 9.22385 7.77613 8.99999 7.49999 8.99999C7.22385 8.99999 6.99999 9.22385 6.99999 9.49999V12.6136L6.06819 11.6818C5.89245 11.5061 5.60753 11.5061 5.43179 11.6818C5.25605 11.8575 5.25605 12.1424 5.43179 12.3182L7.18179 14.0682C7.35753 14.2439 7.64245 14.2439 7.81819 14.0682L9.56819 12.3182C9.74392 12.1424 9.74392 11.8575 9.56819 11.6818C9.39245 11.5061 9.10753 11.5061 8.93179 11.6818L7.99999 12.6136V9.49999ZM8.99999 7.49999C8.99999 7.22385 9.22385 6.99999 9.49999 6.99999H12.6136L11.6818 6.06819C11.5061 5.89245 11.5061 5.60753 11.6818 5.43179C11.8575 5.25605 12.1424 5.25605 12.3182 5.43179L14.0682 7.18179C14.2439 7.35753 14.2439 7.64245 14.0682 7.81819L12.3182 9.56819C12.1424 9.74392 11.8575 9.74392 11.6818 9.56819C11.5061 9.39245 11.5061 9.10753 11.6818 8.93179L12.6136 7.99999H9.49999C9.22385 7.99999 8.99999 7.77613 8.99999 7.49999ZM3.31819 6.06819L2.38638 6.99999H5.49999C5.77613 6.99999 5.99999 7.22385 5.99999 7.49999C5.99999 7.77613 5.77613 7.99999 5.49999 7.99999H2.38638L3.31819 8.93179C3.49392 9.10753 3.49392 9.39245 3.31819 9.56819C3.14245 9.74392 2.85753 9.74392 2.68179 9.56819L0.93179 7.81819C0.756054 7.64245 0.756054 7.35753 0.93179 7.18179L2.68179 5.43179C2.85753 5.25605 3.14245 5.25605 3.31819 5.43179C3.49392 5.60753 3.49392 5.89245 3.31819 6.06819Z"
    fill="currentColor"
  />
</svg>

<svg xmlns="http://www.w3.org/2000/svg" width="15" height="15" fill="none"><path fill="currentColor" fill-rule="evenodd" d="M7.818.932a.45.45 0 0 0-.636 0l-1.75 1.75a.45.45 0 1 0 .636.636L7 2.386V5.5a.5.5 0 0 0 1 0V2.386l.932.932a.45.45 0 0 0 .636-.636zM8 9.5a.5.5 0 0 0-1 0v3.114l-.932-.932a.45.45 0 0 0-.636.636l1.75 1.75a.45.45 0 0 0 .636 0l1.75-1.75a.45.45 0 0 0-.636-.636L8 12.614zm1-2a.5.5 0 0 1 .5-.5h3.114l-.932-.932a.45.45 0 0 1 .636-.636l1.75 1.75a.45.45 0 0 1 0 .636l-1.75 1.75a.45.45 0 0 1-.636-.636L12.614 8H9.5a.5.5 0 0 1-.5-.5M3.318 6.068 2.386 7H5.5a.5.5 0 0 1 0 1H2.386l.932.932a.45.45 0 0 1-.636.636l-1.75-1.75a.45.45 0 0 1 0-.636l1.75-1.75a.45.45 0 1 1 .636.636" clip-rule="evenodd"/></svg>
